X: 42023
T: Walter Sammon's Grandmother
R: reel
M: 4/4
K: Dmajor
|:FAAF A2dB|AFDE FEE2|FAAF ABdB|AFEA FDD2:|
FAdA BAdA|FAdA BEE2|FAdA BAdB|AFEA FDD2|
FAdA BAdA|FAdA BGBc|dcBA BcdB|AFEA FDD2||

